svgs/sharp-regular/file-lock.svg

<svg xmlns="http://www.w3.org/2000/svg" viewBox="0 0 576 512"><!--! Font Awesome Pro 6.6.0 by @fontawesome - https://fontawesome.com License - https://fontawesome.com/license (Commercial License) Copyright 2024 Fonticons, Inc. --><path d="M48 464l272 0 0 48L48 512 0 512l0-48L0 48 0 0 48 0 256 0 384 128l0 65.6c-19.8 20.2-32 47.9-32 78.4l0 16-16 0 0-128-112 0 0-112L48 48l0 416zM464 240c-17.7 0-32 14.3-32 32l0 48 64 0 0-48c0-17.7-14.3-32-32-32zm-80 32c0-44.2 35.8-80 80-80s80 35.8 80 80l0 48 32 0 0 192-224 0 0-192 32 0 0-48z"/></svg>

<svg xmlns="http://www.w3.org/2000/svg" viewBox="0 0 576 512"><!--! Font Awesome Pro 6.4.2 by @fontawesome - https://fontawesome.com License - https://fontawesome.com/license (Commercial License) Copyright 2023 Fonticons, Inc. --><path d="M48 464H320l0 48H48 0V464 48 0H48 256L384 128v65.6c-19.8 20.2-32 47.9-32 78.4v16H336V160H224V48H48V464zM464 240c-17.7 0-32 14.3-32 32v48h64V272c0-17.7-14.3-32-32-32zm-80 32c0-44.2 35.8-80 80-80s80 35.8 80 80v48h32V512H352V320h32V272z"/></svg>
